X: 37824
T: Sonny's
R: mazurka
M: 3/4
K: Dmajor
|:DF|A2 AG FA|d2 d2 BA|G2 GB AG|FG EF DF|
A2 AG FA|d2 d2 BA|G2 Gg fe|d4:|
|:Ad|f2 fa gf|e2 eg fe|d2 df ed|cd Bc Ad|
f2 fa gf|e2 eg fe|dc df ec|d4:|

